Origami/32x32/apps/Zoom.svg

<svg width="32" height="32" version="1.1" viewBox="0 0 32 32" xmlns="http://www.w3.org/2000/svg">
 <circle cx="16" cy="17" r="14" style="opacity:.2"/>
 <circle cx="16" cy="16" r="14" style="fill:#138de7"/>
 <path d="m8 12v2.142857 5.714286c0 1.187143 0.94775 2.142857 2.125 2.142857h7.791667 2.083333v-2.142857-5.714286c0-1.187143-0.906083-2.142857-2.083333-2.142857h-7.791667zm17 0-4 2.5v5l4 2.5v-5z" style="opacity:.2"/>
 <path d="m8 11v2.142857 5.714286c0 1.187143 0.94775 2.142857 2.125 2.142857h7.791667 2.083333v-2.142857-5.714286c0-1.187143-0.906083-2.142857-2.083333-2.142857h-7.791667zm17 0-4 2.5v5l4 2.5v-5z" style="fill:#ffffff"/>
 <path d="M 16 2 A 14 14 0 0 0 2 16 A 14 14 0 0 0 2.0214844 16.585938 A 14 14 0 0 1 16 3 A 14 14 0 0 1 29.978516 16.414062 A 14 14 0 0 0 30 16 A 14 14 0 0 0 16 2 z" style="fill:#ffffff;opacity:.2"/>
</svg>

<svg xmlns="http://www.w3.org/2000/svg" width="32" height="32" version="1.1" viewBox="0 0 32 32">
 <circle cx="16" cy="17" r="14" style="opacity:0.2"/>
 <circle style="fill:#138de7" cx="16" cy="16" r="14"/>
 <path d="m 8,12 0,2.142857 0,5.714286 C 8,21.044286 8.94775,22 10.125,22 L 17.916667,22 20,22 20,19.857143 20,14.142857 C 20,12.955714 19.093917,12 17.916667,12 L 10.125,12 Z m 17,0 -4,2.5 0,5 4,2.5 0,-5 z" style="opacity:0.2"/>
 <path style="fill:#ffffff" d="m 8,11 0,2.142857 0,5.714286 C 8,20.044286 8.94775,21 10.125,21 L 17.916667,21 20,21 20,18.857143 20,13.142857 C 20,11.955714 19.093917,11 17.916667,11 L 10.125,11 Z m 17,0 -4,2.5 0,5 4,2.5 0,-5 z"/>
 <path style="fill:#ffffff;opacity:0.2" d="M 16 2 A 14 14 0 0 0 2 16 A 14 14 0 0 0 2.0214844 16.585938 A 14 14 0 0 1 16 3 A 14 14 0 0 1 29.978516 16.414062 A 14 14 0 0 0 30 16 A 14 14 0 0 0 16 2 z"/>
</svg>
